src/icons/hds/ui/cogwheel.svg

<svg xmlns="http://www.w3.org/2000/svg" width="24" height="24" viewBox="0 0 24 24">
  <g fill="none" fill-rule="evenodd">
    <rect width="24" height="24"/>
    <path fill="currentColor" d="M11.726601,2 C12.6913471,2 13.5095073,2.50189709 13.8733209,3.33527162 L13.9327443,3.48574397 L14.3045087,4.48760375 C14.3459857,4.65459931 14.4680421,4.77745592 14.63395,4.81920481 C14.8176468,4.86543009 14.9760478,4.86509539 15.1394794,4.80647158 L15.2383846,4.76420876 L16.0650048,4.46872277 C16.8961881,4.05040655 17.8272136,4.08789172 18.4732129,4.60849084 C19.3373966,5.22981164 19.6565256,6.28500228 19.3291775,7.28678516 L19.2721038,7.44444653 L18.8443368,8.3669125 C18.7531256,8.55053075 18.7531256,8.7233546 18.8443368,8.90697285 C18.914282,9.04778038 19.0063738,9.13871629 19.1639331,9.23134987 L19.2666713,9.28754629 L20.3601397,9.65442527 C21.1858006,9.93144988 21.8305714,10.618624 21.9615261,11.4097719 C22.1514368,12.429269 21.6246386,13.4097735 20.6827671,13.8563877 L20.5454229,13.9165044 L19.3115647,14.3502219 C19.1456568,14.3919708 19.0236004,14.5148274 18.9821234,14.681823 C18.9361992,14.8667241 18.9365317,15.0261635 18.9888826,15.1767709 L19.0265815,15.2662085 L19.4518192,16.1222595 C19.8414364,16.9066024 19.8330561,17.7792725 19.40432,18.421069 L19.3129615,18.5462554 C18.6755156,19.4445302 17.6065226,19.7885358 16.6530088,19.417889 L16.5109163,19.3569121 L15.5182706,18.9809588 C15.3358482,18.8891496 15.16415,18.8891496 14.9817277,18.9809588 C14.8111518,19.0668058 14.6941561,19.178365 14.6346817,19.3142481 L14.6059312,19.3986857 L14.2965918,20.4548108 C13.9849666,21.2703481 13.2955411,21.8517409 12.4318952,21.9757549 L12.2679696,21.9935932 L12.0910905,22 C11.2055224,22 10.3796534,21.4614525 10.0067246,20.65862 L9.94569547,20.514256 L9.57393107,19.5123963 C9.5324541,19.3454007 9.41039767,19.2225441 9.24448977,19.1807952 C9.06079294,19.1345699 8.90239198,19.1349046 8.74612995,19.1906965 L7.81343502,19.5924237 C6.98225165,20.0107399 6.05122614,19.9732548 5.40522684,19.4526557 C4.54104314,18.8313349 4.22191413,17.7761442 4.5474224,16.7784585 L4.60419006,16.6214787 L5.034103,15.6330875 C5.12531417,15.4494693 5.12531417,15.2766454 5.034103,15.0930271 C4.96415778,14.9522196 4.87206598,14.8612837 4.71450668,14.7686501 L4.61176844,14.7124537 L3.70054479,14.4067212 C2.87794896,14.130725 2.23440889,13.4459512 2.03799892,12.5879535 C1.85053945,11.5187191 2.36944647,10.5322196 3.31247148,10.084261 L3.45004402,10.0239797 L4.44537858,9.64977806 C4.61128647,9.60802917 4.73334291,9.48517256 4.77481988,9.318177 C4.82074409,9.13327588 4.82041157,8.97383648 4.76216958,8.80933349 L4.72018202,8.70977986 L4.43017735,7.88459218 C4.01098844,7.11104095 4.04841032,6.16936061 4.56547832,5.45374459 C5.20292416,4.55546985 6.27191715,4.21146421 7.23466704,4.5858846 L8.3601692,5.08018774 C8.54259153,5.17199687 8.71428976,5.17199687 8.89671208,5.08018774 C9.06728794,4.99434068 9.18428367,4.88278151 9.24375802,4.74689842 L9.27250853,4.6624608 L9.58004146,3.61123925 C9.89314238,2.72880932 10.6230039,2.13982078 11.5385125,2.0178366 L11.726601,2 Z M11.7289322,3.75 C11.4992987,3.75 11.2854949,3.87977688 11.1833864,4.1110882 L11.1505187,4.20253421 L10.8470533,5.24142039 C10.644462,5.85366445 10.17553,6.38055105 9.56761628,6.65162861 C9.04679193,6.82651365 8.4755652,6.84594532 7.92391396,6.70173432 L7.71809902,6.63996845 L6.78224681,6.16618577 C6.47757266,6.06388074 6.1990667,6.15586688 6.10211248,6.26453837 L6.07673169,6.30113654 L6.01391847,6.37695372 C5.85165803,6.49954415 5.7856306,6.72591202 5.86102815,6.98236505 L5.8960198,7.07980125 L6.38205365,8.05951437 C6.66226963,8.69463768 6.69683424,9.35619554 6.44229095,9.93313043 C6.2037454,10.4738056 5.8016852,10.9061299 5.28140879,11.181229 L5.12182468,11.258993 L4.19764168,11.6301773 C3.92494942,11.7086625 3.75,11.9933517 3.75,12.2730616 C3.75,12.4711764 3.85393274,12.6930656 4.10015286,12.8149516 L4.19923004,12.8557294 L5.23053079,13.1614269 C5.83830456,13.3655082 6.36134411,13.8378893 6.62300284,14.4309517 C6.86433542,14.9779439 6.88627475,15.5815822 6.68571378,16.1455059 L6.61886738,16.3133952 L6.1422423,17.2728274 C6.02379136,17.5512458 6.09826312,17.8263174 6.27771787,18.0070921 C6.45312175,18.1837861 6.65198416,18.2595732 6.90781761,18.1366602 L6.99525143,18.0881958 L7.9752243,17.5954354 C8.30859379,17.4611068 8.63736409,17.3980233 9.01825373,17.3980233 C9.2425202,17.3980233 9.4143047,17.4304698 9.80856548,17.5304125 C10.3336618,17.706732 10.778595,18.1405187 11.0699936,18.7129693 L11.1456041,18.8724409 L11.5096636,19.850826 C11.5706915,20.0352566 11.6716053,20.1408224 11.8097099,20.1977353 C11.9103267,20.2391995 12.0032479,20.25 12.1505932,20.25 C12.3802267,20.25 12.5940306,20.1202231 12.696139,19.8889118 L12.7290067,19.7974658 L13.0324721,18.7585796 C13.2350634,18.1463356 13.7039954,17.6194489 14.2927275,17.3558657 C14.8357258,17.112758 15.4349568,17.0906573 15.9873265,17.2891848 L16.1515285,17.3553615 L17.1252232,17.784794 C17.3214004,17.8836041 17.4920691,17.8569262 17.6875195,17.7387935 L17.8427168,17.6359409 L17.8861285,17.5744742 C18.0199073,17.3631404 18.0567144,17.1663414 17.9687081,16.9523661 L17.4372345,15.8798053 C17.1824927,15.3024204 17.1307685,14.7031889 17.3091221,14.1800672 L17.3695576,14.0255119 C17.5445897,13.4965534 17.9752092,13.0483476 18.5443704,12.7544724 L18.7029431,12.6782062 L19.8371658,12.2575696 C20.134522,12.1291939 20.25,11.9388401 20.25,11.666258 C20.25,11.4740411 20.1569563,11.2652275 19.9429418,11.172219 L18.7092319,10.7778928 C18.1014581,10.5738114 17.5784186,10.1014303 17.3167599,9.50836794 C17.0754273,8.96137578 17.053488,8.3577374 17.2505659,7.80130486 L17.3162594,7.63589512 L17.7372831,6.66649221 C17.855734,6.38807382 17.7812623,6.11300226 17.6018075,5.93222759 C17.4264037,5.75553358 17.2275412,5.67974646 16.9717078,5.80265943 L16.884274,5.85112383 L15.9117142,6.34073256 C15.3385451,6.59734804 14.7436889,6.64945262 14.2243867,6.46978718 L14.0709599,6.40890719 C13.5458636,6.23258769 13.1009304,5.79880091 12.8108222,5.22970525 L12.7355965,5.07123436 L12.3814369,4.1773241 C12.233539,3.87935269 11.9510409,3.75 11.7289322,3.75 Z M12,8 C14.2005094,8 16,9.79949061 16,12 C16,14.2005094 14.2005094,16 12,16 C9.79949061,16 8,14.2005094 8,12 C8,9.79949061 9.79949061,8 12,8 Z M12,9.75 C10.7629994,9.75 9.75,10.7629994 9.75,12 C9.75,13.2370006 10.7629994,14.25 12,14.25 C13.2370006,14.25 14.25,13.2370006 14.25,12 C14.25,10.7629994 13.2370006,9.75 12,9.75 Z"/>
  </g>
</svg>

<svg viewBox="0 0 24 24" role="img" xmlns="http://www.w3.org/2000/svg"><g fill="none" fill-rule="evenodd"><path d="M0 0h24v24H0z"/><path d="M11.727 2c.964 0 1.783.502 2.146 1.335l.06.15.372 1.003c.041.167.163.29.329.331a.829.829 0 00.505-.013l.1-.042.826-.295c.831-.419 1.762-.381 2.408.14.864.62 1.184 1.676.856 2.678l-.057.157-.428.923a.567.567 0 000 .54c.07.14.162.232.32.324l.103.057 1.093.366c.826.277 1.47.965 1.602 1.756.19 1.02-.337 2-1.28 2.446l-.137.06-1.233.434a.446.446 0 00-.33.332.844.844 0 00.007.495l.038.09.425.855c.39.785.381 1.657-.048 2.3l-.091.124c-.637.899-1.706 1.243-2.66.872l-.142-.061-.993-.376a.557.557 0 00-.536 0c-.17.086-.288.197-.347.333l-.03.085-.308 1.056c-.312.815-1.001 1.397-1.865 1.52l-.164.019-.177.006a2.329 2.329 0 01-2.084-1.341l-.061-.145-.372-1.002a.446.446 0 00-.33-.331.826.826 0 00-.498.01l-.933.401c-.83.419-1.762.381-2.408-.14-.864-.62-1.183-1.676-.858-2.674l.057-.157.43-.988a.567.567 0 000-.54.735.735 0 00-.32-.324l-.102-.057-.911-.305a2.528 2.528 0 01-1.663-1.819c-.187-1.07.331-2.056 1.274-2.504l.138-.06.995-.374a.446.446 0 00.33-.332.844.844 0 00-.013-.509l-.042-.1-.29-.824c-.419-.774-.382-1.716.135-2.431.638-.899 1.707-1.243 2.67-.868l1.125.494a.557.557 0 00.537 0c.17-.086.287-.197.347-.333l.029-.085.307-1.05a2.372 2.372 0 011.959-1.594L11.727 2zm.002 1.75c-.23 0-.444.13-.546.361l-.032.092-.304 1.038a2.382 2.382 0 01-1.28 1.41 2.878 2.878 0 01-1.643.05l-.206-.061-.936-.474c-.304-.102-.583-.01-.68.099l-.025.036-.063.076c-.162.123-.228.349-.153.605l.035.098.486.98c.28.635.315 1.296.06 1.873-.238.54-.64.973-1.16 1.248l-.16.078-.924.371c-.273.079-.448.363-.448.643 0 .198.104.42.35.542l.1.04 1.03.306a2.37 2.37 0 011.393 1.27c.241.547.263 1.15.063 1.715l-.067.167-.477.96a.656.656 0 00.136.734c.175.177.374.253.63.13l.087-.049.98-.493a2.693 2.693 0 011.043-.197c.225 0 .396.032.79.132.526.177.97.61 1.262 1.183l.076.16.364.978c.06.184.162.29.3.347.1.041.193.052.34.052.23 0 .444-.13.546-.361l.033-.092.303-1.038a2.376 2.376 0 011.26-1.403 2.253 2.253 0 011.695-.067l.165.066.973.43c.196.099.367.072.563-.046l.155-.103.043-.062c.134-.21.17-.408.083-.622l-.532-1.072c-.255-.578-.306-1.177-.128-1.7l.06-.154c.176-.53.606-.978 1.175-1.272l.159-.076 1.134-.42c.298-.129.413-.32.413-.592a.525.525 0 00-.307-.494l-1.234-.394a2.37 2.37 0 01-1.392-1.27 2.301 2.301 0 01-.066-1.707l.065-.165.421-.97a.656.656 0 00-.135-.734c-.176-.176-.374-.252-.63-.13l-.088.05-.972.489c-.573.256-1.168.308-1.688.129l-.153-.061c-.525-.176-.97-.61-1.26-1.18l-.075-.158-.355-.894a.748.748 0 00-.652-.427zM12 8c2.2 0 4 1.8 4 4s-1.8 4-4 4-4-1.8-4-4 1.8-4 4-4zm0 1.75A2.257 2.257 0 009.75 12 2.257 2.257 0 0012 14.25 2.257 2.257 0 0014.25 12 2.257 2.257 0 0012 9.75z" fill="currentColor"/></g></svg>
